assets/img/svg/007-instagram-1.svg

<svg enable-background="new 0 0 512 512" height="512" viewBox="0 0 512 512" width="512" xmlns="http://www.w3.org/2000/svg"><g fill="#535353"><path d="m363.273 0h-214.545c-82.009 0-148.728 66.719-148.728 148.728v214.544c0 82.009 66.719 148.728 148.728 148.728h214.544c82.009 0 148.728-66.719 148.728-148.727v-214.545c0-82.009-66.719-148.728-148.727-148.728zm108.727 363.272c0 59.953-48.775 108.728-108.727 108.728h-214.545c-59.953 0-108.728-48.775-108.728-108.727v-214.545c0-59.953 48.775-108.728 108.728-108.728h214.544c59.953 0 108.728 48.775 108.728 108.728z" xmlns="http://www.w3.org/2000/svg"/><path d="m256 118c-76.094 0-138 61.906-138 138s61.906 138 138 138 138-61.906 138-138-61.906-138-138-138zm0 236c-54.037 0-98-43.963-98-98s43.963-98 98-98 98 43.963 98 98-43.963 98-98 98z" xmlns="http://www.w3.org/2000/svg"/><circle cx="396" cy="116" r="20"/></g></svg>

<?xml version="1.0" encoding="UTF-8"?>
<svg xmlns="http://www.w3.org/2000/svg" xmlns:xlink="http://www.w3.org/1999/xlink" xmlns:svgjs="http://svgjs.com/svgjs" version="1.1" width="512" height="512" x="0" y="0" viewBox="0 0 512 512" style="enable-background:new 0 0 512 512" xml:space="preserve" class="">
  <g>
<g xmlns="http://www.w3.org/2000/svg">
	<g>
		<path d="M363.273,0H148.728C66.719,0,0,66.719,0,148.728v214.544C0,445.281,66.719,512,148.728,512h214.544    C445.281,512,512,445.281,512,363.273V148.728C512,66.719,445.281,0,363.273,0z M472,363.272C472,423.225,423.225,472,363.273,472    H148.728C88.775,472,40,423.225,40,363.273V148.728C40,88.775,88.775,40,148.728,40h214.544C423.225,40,472,88.775,472,148.728    V363.272z" fill="#535353" data-original="#000000" style="" class=""/>
	</g>
</g>
<g xmlns="http://www.w3.org/2000/svg">
	<g>
		<path d="M256,118c-76.094,0-138,61.906-138,138s61.906,138,138,138s138-61.906,138-138S332.094,118,256,118z M256,354    c-54.037,0-98-43.963-98-98s43.963-98,98-98s98,43.963,98,98S310.037,354,256,354z" fill="#535353" data-original="#000000" style="" class=""/>
	</g>
</g>
<g xmlns="http://www.w3.org/2000/svg">
	<g>
		<circle cx="396" cy="116" r="20" fill="#535353" data-original="#000000" style="" class=""/>
	</g>
</g>















</g>
</svg>
